!!!COM: Beethoven
!!!OTL: 7 Variations on a Quartet by Winter 
!!!Variation: Variation 5c
**harm	**function	**kern	**kern
*M2/4	*M2/4	*staff2	*staff1
*F:	*F:	*clefG2	*clefG2
*	*tb16	*k[b-]	*k[b-]
*	*	*M2/4	*M2/4
*	*	*F:	*F:
4I	4T	4r	(8ccL
.	.	.	16aJk)
.	.	.	16r
=	=	=271	=271
2I	2T	2r	(8aL
.	.	.	16fJk)
.	.	.	16r
.	.	.	(8ffL
.	.	.	16ccJk)
.	.	.	16r
=	=	=272	=272
4V7	4T	16r	(4b-
.	.	(16cLL	.
.	.	16d	.
.	.	16eJJ	.
4I	4T	16fLL	4a)
.	.	16e	.
.	.	16d	.
.	.	16cJJ)	.
=	=	=273	=273
8V2	8T	8B-'L	16eLL 16g
.	.	.	16cc
8I6	8T	8A'J	16f
.	.	.	16ccJJ
8V43	8T	8G'L	16eLL 16b-
.	.	.	16cc
8I	8T	8F'J	16f 16a
.	.	.	16ccJJ
=	=	=274	=274
4V	4T	8C	(16eLL 16g
.	.	.	16cc
.	.	8r	16b
.	.	.	16b-JJ)
4I6	4T	(8cL	(16aLL
.	.	.	16b-
.	.	16AJk)	16b
.	.	16r	16ccJJ
=	=	=275	=275
2I	2T	(8AL	16cc#LL
.	.	.	16dd
.	.	16FJk)	16ee-
.	.	16r	16eeJJ
.	.	(8fL	16ffLL
.	.	.	16gg
.	.	16cJk)	16aa
.	.	16r	16ffJJ)
=	=	=276	=276
4V2	4T	(4B-	(16eeLL
.	.	.	16cc
.	.	.	16dd
.	.	.	16eeJJ
4I6	4T	8AL	16ffLL
.	.	.	16ee
.	.	8A-J)	16dd
.	.	.	[16ccJJ
=	=	=277	=277
*	*	*^	*
2V7/V	2D	4G	2G	16ccLL])
.	.	.	.	16f
.	.	.	.	16b
.	.	.	.	16fJJ
.	.	8AL	.	16ccLL
.	.	.	.	16f
.	.	8BJ	.	16dd
.	.	.	.	16fJJ
*	*	*v	*v	*
=	=	=278	=278
*-	*-	*-	*-
